build/category/USBOutline.svg

<svg xmlns="http://www.w3.org/2000/svg" fill="none" viewBox="0 0 24 24" focusable="false"><path d="M0 0H24V24H0z" transform="matrix(1 0 0 -1 0 24)"/><path fill="#74767B" fill-rule="evenodd" d="M9.84352 6.24154C10.3229 5.7622 11.0834 5.73544 11.5941 6.16127L15.0881 2.66726C15.5958 2.15958 16.4189 2.15958 16.9266 2.66726L21.387 7.12762C21.8947 7.6353 21.8947 8.45842 21.387 8.9661L17.893 12.4601C18.3195 12.9708 18.2929 13.7318 17.8134 14.2114L10.8544 21.1704C9.6828 22.3419 7.78331 22.3419 6.61173 21.1704L2.88454 17.4432C1.71297 16.2716 1.71297 14.3721 2.88454 13.2005L9.84352 6.24154ZM20.4677 8.04686L16.0074 3.5865L12.5466 7.04732L17.0069 11.5077L20.4677 8.04686ZM14.7743 6.53105C14.5205 6.78489 14.5205 7.19645 14.7743 7.45029C15.0282 7.70413 15.4397 7.70413 15.6936 7.45029L16.4104 6.73343C16.6643 6.47959 16.6643 6.06803 16.4104 5.81419C16.1566 5.56035 15.745 5.56035 15.4912 5.81419L14.7743 6.53105ZM16.8941 13.2921L10.7628 7.16078L3.80378 14.1198C3.13989 14.7836 3.13989 15.86 3.80378 16.5239L7.53097 20.2511C8.19486 20.915 9.27124 20.915 9.93513 20.2511L16.8941 13.2921ZM16.6044 8.36097C16.3506 8.61481 16.3506 9.02637 16.6044 9.28021C16.8582 9.53405 17.2698 9.53405 17.5236 9.28021L18.2405 8.56336C18.4943 8.30952 18.4943 7.89796 18.2405 7.64412C17.9867 7.39028 17.5751 7.39028 17.3213 7.64412L16.6044 8.36097Z"/></svg>

<svg xmlns="http://www.w3.org/2000/svg" fill="none" viewBox="0 0 24 24" focusable="false"><path fill="#74767B" fill-rule="evenodd" d="M9.84 6.24c.48-.48 1.24-.51 1.75-.08l3.49-3.5c.51-.51 1.33-.51 1.84 0l4.46 4.46c.51.51.51 1.33 0 1.84l-3.49 3.5c.42.51.4 1.27-.08 1.75l-6.96 6.96a3 3 0 0 1-4.24 0l-3.73-3.73a3 3 0 0 1 0-4.24zm10.62 1.8L16 3.58l-3.46 3.46L17 11.5zm-5.69-.59a.66.66 0 0 1 0-.92l.72-.72c.25-.25.66-.25.92 0 .25.25.25.66 0 .92l-.72.72c-.26.25-.67.25-.92 0m2.12 5.84-6.13-6.13-6.96 6.95c-.67.67-.67 1.75 0 2.41l3.73 3.73c.66.66 1.74.66 2.4 0zm-.29-4.93c-.25.25-.25.66 0 .92.25.25.67.25.92 0l.72-.72c.25-.26.25-.67 0-.92a.66.66 0 0 0-.92 0z"/></svg>
